X: 14883
T: Garvey In The Sea
R: reel
M: 4/4
K: Eminor
|:D2DE ~G3A|{c}B2d2 {f}e2{a}g2|D2DE ~G3A|BdBG ~E2D2|
D2DE ~G3A|{c}B2d2 {f}e2{a}g2|e/f/ged BdBG|E4 E4:|
{a}g2e2 e2de|{a}g2eg a2ba|{a}g2e2 e2de|{a}g2eg a2ba|
g2e2 e2de|{a}g2e/f/g a2ba|gee2 f2B/c/d|fbaf e2ef|
~g2eB gBeB|gBeb b2aB|~g3e e2de|g2e/f/g a2ba|
g2e2 e2de|{a}g2e/f/g a2ba|gee2 f2B/c/d|fbaf e2e2||

